assets/images/img-banner-bg.svg

<svg width="390" height="57" viewBox="0 0 390 57" fill="none" xmlns="http://www.w3.org/2000/svg">
<g clip-path="url(#clip0_3961_51535)">
<path d="M0 8.01111C0 3.59283 3.58172 0.0111084 8 0.0111084H382C386.418 0.0111084 390 3.59283 390 8.01111V48.0111C390 52.4294 386.418 56.0111 382 56.0111H8C3.58172 56.0111 0 52.4294 0 48.0111V8.01111Z" fill="url(#paint0_linear_3961_51535)"/>
<g clip-path="url(#clip1_3961_51535)">
<path fill-rule="evenodd" clip-rule="evenodd" d="M25.0986 18.0911C20.0052 18.0911 15.8761 13.962 15.8761 8.86853C15.8761 13.962 11.747 18.0911 6.65355 18.0911C11.747 18.0911 15.8761 22.2201 15.8761 27.3136C15.8761 22.2201 20.0052 18.0911 25.0986 18.0911Z" fill="#FFC79D"/>
<path fill-rule="evenodd" clip-rule="evenodd" d="M36.0811 42.3008C33.1596 42.3008 30.7913 39.9325 30.7913 37.0111C30.7913 39.9325 28.423 42.3008 25.5016 42.3008C28.423 42.3008 30.7913 44.6691 30.7913 47.5906C30.7913 44.6691 33.1596 42.3008 36.0811 42.3008Z" fill="#FFC79D"/>
</g>
<g clip-path="url(#clip2_3961_51535)">
<path fill-rule="evenodd" clip-rule="evenodd" d="M364.389 18.0911C369.483 18.0911 373.612 13.9621 373.612 8.86859C373.612 13.9621 377.741 18.0911 382.834 18.0911C377.741 18.0911 373.612 22.2202 373.612 27.3137C373.612 22.2202 369.483 18.0911 364.389 18.0911Z" fill="#FFC79D"/>
<path fill-rule="evenodd" clip-rule="evenodd" d="M353.407 42.3009C356.328 42.3009 358.696 39.9326 358.696 37.0112C358.696 39.9326 361.065 42.3009 363.986 42.3009C361.065 42.3009 358.696 44.6692 358.696 47.5906C358.696 44.6692 356.328 42.3009 353.407 42.3009Z" fill="#FFC79D"/>
</g>
</g>
<defs>
<linearGradient id="paint0_linear_3961_51535" x1="-183.11" y1="-28.9889" x2="24.1521" y2="286.744" gradientUnits="userSpaceOnUse">
<stop stop-color="#0165D1" stop-opacity="0.17"/>
<stop offset="1" stop-color="#D2E8FF" stop-opacity="0.1"/>
</linearGradient>
<clipPath id="clip0_3961_51535">
<path d="M0 8.01111C0 3.59283 3.58172 0.0111084 8 0.0111084H382C386.418 0.0111084 390 3.59283 390 8.01111V48.0111C390 52.4294 386.418 56.0111 382 56.0111H8C3.58172 56.0111 0 52.4294 0 48.0111V8.01111Z" fill="white"/>
</clipPath>
<clipPath id="clip1_3961_51535">
<rect width="64.4878" height="64.4878" fill="white" transform="matrix(-1 0 0 1 67.4878 8.60437)"/>
</clipPath>
<clipPath id="clip2_3961_51535">
<rect width="64.4878" height="64.4878" fill="white" transform="translate(322 8.60443)"/>
</clipPath>
</defs>
</svg>

<svg xmlns="http://www.w3.org/2000/svg" width="390" height="57" fill="none" viewBox="0 0 390 57"><g clip-path="url(#a)"><path fill="url(#b)" d="M0 8.011a8 8 0 0 1 8-8h374a8 8 0 0 1 8 8v40a8 8 0 0 1-8 8H8a8 8 0 0 1-8-8z"/><g fill="#FFC79D" fill-rule="evenodd" clip-path="url(#c)" clip-rule="evenodd"><path d="M25.099 18.091a9.223 9.223 0 0 1-9.223-9.222 9.223 9.223 0 0 1-9.222 9.222 9.223 9.223 0 0 1 9.222 9.223A9.22 9.22 0 0 1 25.1 18.09M36.081 42.3a5.29 5.29 0 0 1-5.29-5.289 5.29 5.29 0 0 1-5.29 5.29 5.29 5.29 0 0 1 5.29 5.29 5.29 5.29 0 0 1 5.29-5.29"/></g><g fill="#FFC79D" fill-rule="evenodd" clip-path="url(#d)" clip-rule="evenodd"><path d="M364.389 18.091a9.223 9.223 0 0 0 9.223-9.222 9.22 9.22 0 0 0 9.222 9.222 9.22 9.22 0 0 0-9.222 9.223 9.223 9.223 0 0 0-9.223-9.223M353.407 42.3a5.29 5.29 0 0 0 5.289-5.289 5.29 5.29 0 0 0 5.29 5.29 5.29 5.29 0 0 0-5.29 5.29 5.29 5.29 0 0 0-5.289-5.29"/></g></g><defs><clipPath id="a"><path fill="#fff" d="M0 8.011a8 8 0 0 1 8-8h374a8 8 0 0 1 8 8v40a8 8 0 0 1-8 8H8a8 8 0 0 1-8-8z"/></clipPath><clipPath id="c"><path fill="#fff" d="M67.488 8.604H3v64.488h64.488z"/></clipPath><clipPath id="d"><path fill="#fff" d="M322 8.604h64.488v64.488H322z"/></clipPath><linearGradient id="b" x1="-183.11" x2="24.1521" y1="-28.9889" y2="286.744" gradientUnits="userSpaceOnUse"><stop stop-color="#0165D1" stop-opacity="0.17"/><stop offset="1" stop-color="#D2E8FF" stop-opacity="0.1"/></linearGradient></defs></svg>
